X: 20294
T: John Barleycorn
R: barndance
M: 4/4
K: Edorian
EG|:"A"A2 AG "Em"E2 E2|"C"G2 "D"GA "Em"B2 BG|"A"A2 AG "C"E2 "D"E2|
"Em"E6 BA|"A" A2 AG "Em"E2 EF|"C"G2 "D"A2 "Em"B2 AG|"A"A2 AG "C"E2 "D"E2|
"Em"E6 EF|"G"G2 A2 BcdB|"Em"ee e2 e2 Bc|"G"d2 d2 "A"e2 A2|
"Bm"B6 cB|"Am"A2 AG "Em"E2 EF|"C"G2 "D"A2 "Em"B2 AG|"A"A2 AG "C"E2 "D"E2|"Em"E6:|

